/* XPM */
static char * rotate1_xpm[] = {
"16 16 14 1",
" 	c None",
".	c #E6E6E6",
"+	c #2B2B2B",
"@	c #B3B3B3",
"#	c #999999",
"$	c #E0E0E0",
"%	c #CECECE",
"&	c #D0D0D0",
"*	c #EAEAEA",
"=	c #C9C9C9",
"-	c #EDEDED",
";	c #BEBEBE",
">	c #D6D6D6",
",	c #B4B4B4",
"                ",
"     .++@       ",
"     #+$+%      ",
"    &+  ++      ",
"  +++++  +*     ",
"   +++   +=     ",
"   #+-   +; ++  ",
"+++++++++++++++#",
"++++++++++++++++",
"         +; ++  ",
"   #+    +=     ",
"    +>  #+*     ",
"    #+  #+      ",
"     ++#+%      ",
"     #++,       ",
"                "};
