/* XPM */
static char * rotate3_xpm[] = {
"16 16 14 1",
" 	c None",
".	c #999999",
"+	c #2B2B2B",
"@	c #EAEAEA",
"#	c #C9C9C9",
"$	c #BEBEBE",
"%	c #CECECE",
"&	c #B3B3B3",
"*	c #B4B4B4",
"=	c #E0E0E0",
"-	c #E6E6E6",
";	c #EDEDED",
">	c #D6D6D6",
",	c #D0D0D0",
"       .+       ",
"       ++       ",
"      ++++      ",
"      ++++      ",
"       ++       ",
"    @#$++$#@    ",
"  %++++++++++%  ",
" &++   ++  ..+* ",
" +=    ++    .+ ",
" ++ +  ++    ++ ",
" -.+++;++  >++. ",
"   ,+++++ ++.   ",
"    ++.++ .     ",
"    +  ++       ",
"       ++       ",
"       ++       "};
